X: 12963
T: Fiddler, The
R: strathspey
M: 4/4
K: Amixolydian
a|e<cc>B B<AA>a|e<cc>e f2 f>a|e<cc>B B<AA>e|f/g/a e>a c<B B:|
a|e<cc>e f2 f>a|e<cc>a e<cc>f|e<cc>e f2 f>a|e<ac<a c<BB>f|
e<cc>e f2 f>a|e<cc>a e<cc>f|f/g/a e>a d<ac<a|f/g/a e>a c<B B||

